!!!!SEGMENT: pl-sa--549-a-ix-29--006_anonim--mazur.krn
!!!cenid: 18xx:462
!!!COM: Anonim
!!!COM-rismID: pe30004985
!!!CDT:
!!!CNT:
!!!OTL: Mazur
!!!PDT:
!!!AGN: Secular; Waltz
!!!SMS-siglum: PL-SA
!!!SMS-shelfmark: 549/A IX 29
!!!SMS-shelfwork: 006 W
!!!SMS-variant:
!!!SMS-altvar:
!!!NIFC-rismSourceID: 1001068316
!!!NIFC-islandoraID:
!!!URL-pdf-islandora:
!!!URL-scan: https://bc.bdsandomierz.pl/dlibra/publication/1441/edition/1409/content @EN{Scan on Cyfrowa Biblioteka Diecezjalna w Sandomierzu} @PL{Skany w portalu Cyfrowa Biblioteka Diecezjalna w Sandomierzu}
!!!ONB-nifc: Str. 6 (s. 3-6)
!!!AIN: 2 piano
!!!key: D
**kern	**kern	**dynam
*group1	*group1	*
*part2	*part1	*part1
*staff2	*staff1	*
*I"[Piano]	*I"[Piano]	*
*Ipiano	*Ipiano	*
*ICklav	*ICklav	*
*clefG2	*clefG2	*
*k[f#c#]	*k[f#c#]	*
*D:	*D:	*
*M3/8	*M3/8	*
*>[A,A,B,B,C]	*>[A,A,B,B,C]	*
=1	=1	=1
*>A	*>A	*
*^	*	*
!LO:TX:a:t=P:problem=t.1-2 są w kluczu wiolinowym, nie oznaczone na początku	!	!	!
!	!	!LO:TX:a:t=Mazur.	!
!	!LO:TX:t=P:problem=4\left&colon; global	!LO:TX:t=P:problem=all\left&colon; global	!LO:DY:b:rj:t=p.
8rg	4.d\	8dd\L	p
.	.	8qgg/	.
8f#/L 8a	.	16ff#\L	.
.	.	16ee\J	.
8f#/J 8a	.	8dd\J	.
=2	=2	=2	=2
!	!	!LO:TX:t=P:problem=all\right&colon; global	!LO:DY:b:t=for.
8rg	4.d#X\	8dd#X^>\L	f
8e/L 8g 8a	.	(>8.ee\	.
8e/J 8g 8a	.	.	.
.	.	16ddn\Jk)	.
=3	=3	=3	=3
*clefF4	*	*	*
!	!LO:SIC:v:s:t=4.DD\	!	!
!	!LO:TX:t=P:problem=4\right&colon; global	!	!
8rBB	4.CC#\	(>16dd\LL	.
.	.	16cc#\)	.
8GG/L 8BB	.	16b'>\	.
.	.	16a'>\	.
8GG/J 8BB	.	(>16b\	.
.	.	16cc#\JJ)	.
=4	=4	=4	=4
8rc	4.F#\	16dd\LL	.
.	.	16ee\	.
8A/L 8d	.	16ff#\	.
.	.	16gg\J	.
8A/J 8d	.	8aa\J	.
=5	=5	=5	=5
!	!	!	!LO:DY:b:rj:t=f&colon;
8rc	4.D\	16.dd\LL	f
.	.	32ff#\K	.
.	.	8qaa/	.
8F#/L 8A	.	16gg\	.
.	.	16ff#\	.
8F#/J 8A	.	16ee\	.
.	.	16dd\JJ	.
=6	=6	=6	=6
!LO:N:vis=4	!	!	!LO:DY:rj:t=for&colon;
8ryy	4.C#X\	8dd#X\L	f
8E/L 8G 8B	.	8.ee\	.
8E/J 8A 8B	.	.	.
.	.	16ddn\Jk	.
!!LO:LB:g=original
=7	=7	=7	=7
8r	4.AA\	(>16dd\LL	.
.	.	16cc#\)	.
8E/L 8G	.	16b'>\	.
.	.	16a'>\	.
8E/J 8G	.	16b'>\	.
.	.	16cc#'>\JJ	.
=8	=8	=8	=8
.	.	8qcc#X/	.
8r	4.D\	8dd\	.
4F#/ 4A	.	4d/	.
*v	*v	*	*
=9:||:	=9:||:	=9:||:
*>B	*>B	*
!	!LO:TX:t=P:problem=przedtakt bez kreski taktowej	!LO:DY:t=f.
8ryy	16a/LL	f
.	16dd/JJ	.
=-	=-	=-
8D\L	8ff#\L	.
8F#\	16dd\L	.
.	16a\	.
8A\J	16dd\	.
.	16ff#\JJ	.
=10	=10	=10
8AA/L	(>16aa\LL	.
.	16gg\JJ)	.
8E/	4ee\	.
8A/J	.	.
=11	=11	=11
*rep	*	*
8AA/L	16dd\LL	.
.	16cc#\	.
8E/	16b\	.
.	16a\	.
8A/J	16b\	.
.	16cc#\JJ	.
*Xrep	*	*
=12	=12	=12
8D\L	16dd\LL	.
.	16ee\	.
8F#\	16ff#\	.
.	16gg\J	.
8A\J	8aa\J	.
=13	=13	=13
*rep	*	*
8D\L	8ff#\L	.
8F#\	16dd\L	.
.	16a\	.
8A\J	16dd\	.
.	16ff#\JJ	.
*Xrep	*	*
=14	=14	=14
8AA/L	(>16aa\LL	.
.	16gg\JJ)	.
8E/	8.ee\L	.
8A/J	.	.
.	16dd\Jk	.
!!LO:LB:g=original
=15	=15	=15
*rep	*	*
8AA/L	(>16dd\LL	.
.	16cc#\	.
8E/	16b\)	.
.	16a\	.
8A/J	16b\	.
.	16cc#\JJ	.
*Xrep	*	*
=16	=16	=16
!LO:N:vis=4	!	!
.	8qee/	.
*^	*	*
8rc	4D\	8dd\	.
4F#/ 4A	.	4d/	.
.	8ryy	.	.
*v	*v	*	*
=17:||:	=17:||:	=17:||:
*>C	*>C	*
8DD/	16f#/LL 16a	.
.	16d/ 16f#	.
!	!LO:TX:b:t=dol&colon;	!
4D\	16b/ 16dd	.
.	16a/ 16cc#	.
.	16g/ 16b	.
.	16f#/JJ 16a	.
=18	=18	=18
8AA/	8e/ 8g	.
4A\	4c#/ 4e	.
=19	=19	=19
8DD/L	8d/L 8f#	.
8D/	8A/ 8d	.
8D/J	8d/J 8f#	.
=20	=20	=20
8CC#/L	16c#/LL 16e	.
.	16B/ 16d	.
8AA/	16c#/ 16e	.
.	16d/J 16f#	.
8AA/J	8c#/J 8e	.
=21	=21	=21
8DD/	16f#/LL 16a	.
.	16d/ 16f#	.
4D\	16b/ 16dd	.
.	16a/ 16cc#	.
.	16g/ 16b	.
.	16f#/JJ 16a	.
=22	=22	=22
8GG/	8g/ 8b	.
4G\	8.g/L 8.b 8.ee	.
.	16dd/Jk	.
!!LO:LB:g=original
=23	=23	=23
*^	*	*
8rc	4.AA\	16dd\LL	.
.	.	16cc#\	.
8E/L 8G	.	16b\	.
.	.	16a\	.
8E/J 8G	.	16b\	.
.	.	16cc#\JJ	.
*v	*v	*	*
=24	=24	=24
.	8qee/	.
8D\	8dd\	.
4F#\ 4A	4dd\	.
==	==	==
*-	*-	*-
!!!system-decoration: [{g1}]
!!!ENC: Marta Chmielewska
!!!END: 2020-06-16
!!!EED: Jędrzej Mróz
!!!EEV: 2022-01-04
